X:080 
T:Is Your Wallet Made of Silk? (slide)  
F:file ID: cre.5/080is_your
B:CRE5.081 (An SÃÂÃÂÃÂÃÂ­oda AtÃÂÃÂÃÂÃÂ¡ id Vallait?)
M:12/8
N:I have arranged this as A-B-A. Might have
been part of a quadrille at some point.
Q:180
R:jig
K:G
P:Part A
A|BGA EGD E3 DEG|BGA EFD c3 B2A|
BGA EGD E3 DEF|GAB GBA G3 G2:|
P:Part B
D|:GFG B2d e/f/ge d2B|GFG Bcd e3 g3|
GFG Bdd e/f/ge d2B|BAG EDE c3 B2A :|
P:Part A repeat
BGA EGD E3 DEG|BGA EFD c3 B2A|
BGA EGD E3 DEF|GAB GBA HG6|]


%%%

